X: 10
T:B. Variation
% Nottingham Music Database
S:
M:4/4
L:1/4
K:G
"G"G/2A/2B/2c/2 B/2A/2G/2B/2|"Bm"F/2A/2B/2c/2 B/2A/2F/2A/2|\
"C"E/2G/2c/2B/2 A/2G/2F/2E/2|"G"G/2E/2D/2C/2 B,/2A,/2G,/2B,/2|
"D"DD/2D/2 FF/2F/2|"D"A/2A/2A "D7"d2|"G"GG/2G/2 BB/2B/2|"G"d/2d/2d "D7"gd|\
"G"G/2A/2B/2c/2 B/2A/2G/2B/2|
"Bm"F/2A/2B/2c/2 B/2A/2F/2A/2|"C"E/2G/2c/2B/2 A/2G/2F/2E/2|\
"G"G/2E/2D/2C/2 B,/2A,/2G,/2B,/2|
"D"DD/2D/2 FF/2F/2|"D"A/2A/2A "D7"dd/2c/2|"G"B/2A/2G/2B/2 "D7"A/2G/2F/2A/2|\
"G"GG/2G/2 G||


